src/icons/svg/accounts.svg

<?xml version="1.0" encoding="UTF-8"?>
<svg width="40px" height="48px" viewBox="0 0 40 48" version="1.1" xmlns="http://www.w3.org/2000/svg"
>
    <path d="M36.0001406,20.0002344 L36.0001406,16.000375 C36.0001406,7.17752804 28.8226126,0 20.0002344,0 C11.1778562,0 4.00032813,7.17752804 4.00032813,15.9999062 L4.00032813,19.9997656 L0,19.9997656 L0,48.0001875 L40,48.0001875 L40,20.0002344 L36.0001406,20.0002344 Z M8.0001875,15.9999062 C8.0001875,9.3830054 13.3833335,3.99985937 20.0002344,3.99985937 C26.6171352,3.99985937 32.0002813,9.3830054 32.0002813,15.9999062 L32.0002813,19.9997656 L8.0001875,19.9997656 L8.0001875,15.9999062 Z M36.0006094,44.0003281 L4.00032813,44.0003281 L4.00032813,24.0000938 L36.0006094,24.0000938 L36.0006094,44.0003281 Z"
          id="形状"></path>
    <path d="M20.0002344,40 C22.2094618,40 24.0000938,38.2088993 24.0000938,36.0001406 C24.0000938,34.5231036 23.1905593,33.2476299 21.9999297,32.5548147 L21.9999297,27.9999531 L18.0000703,27.9999531 L18.0000703,32.5548147 C16.8094407,33.2476299 15.9999062,34.5231036 15.9999062,36.0001406 C16.000375,38.209368 17.791007,40 20.0002344,40 L20.0002344,40 Z"
          id="路径"></path>
</svg>

<svg width="40" height="48" xmlns="http://www.w3.org/2000/svg"><path d="M36 20v-4c0-8.822-7.177-16-16-16C11.178 0 4 7.178 4 16v4H0v28h40V20h-4zM8 16C8 9.383 13.383 4 20 4s12 5.383 12 12v4H8v-4zm28 28H4V24h32v20z"/><path d="M20 40a4 4 0 0 0 4-4c0-1.477-.81-2.752-2-3.445V28h-4v4.555c-1.19.693-2 1.968-2 3.445a4 4 0 0 0 4 4z"/></svg>
